X:182
T:Smiles and Tears of Erin (reel) 
T:Crooked Road to Dublin
B:CRE1.101 (Gol agus Gaire na hEireann)
F:file ID: cre.1/182smiles
S:Sonny Brogan
M:C
L:1/8
Q:180
R:reel
K:G
G2AG FGAD|G2AG AdcA|G2AG FGAg|fdcA dBcA|
G2AG FGAD|G2AG AdcA|G2AG FGAg|fdcA d2cA||
dgg2 fgag|dgg2 agfe|dgg2 fgag|fdcA dBcA|
dgg2 fgag|dgg2 a2ga|(3bag af gbag|fdcA dBcA||

%%%

